X:1
T:Sonata II  4. Allegro
T:Sonata II  4. Allegro
T:from Three Solos containing twelve easy movements for the German Flute or Violin (London s.d.) 
T:Francesco Geminiani (1687 - 1762)
C:Francesco Geminiani (1687 - 1762)
%%score 1 2
L:1/8
Q:1/4=71
M:3/8
K:D
V:1 treble nm="Traverso" snm="Trv."
V:2 bass nm="Viola da gamba" snm="Vla. d. g."
V:1
"^Adagio" a/>f/d/>B/A/>G/ | F/>A/d/>a/g/>f/ | b/>g/a/>f/e/>d/ | gf z | a/f/g/e/f/d/ | fe z | %6
 a/>f/b/>f/e/>d/ | d/>c/a/>e/d/>c/ | c/>B/g/>d/c/>B/ | B/>A/f/>c/B/>A/ | A/>G/e/>B/A/>G/ | %11
 G/>F/A/>G/B/>A/ | c/>B/d/>c/f/>e/ | c/B/Ad- | d/g<ed/ | d/A/B/A/f | e/A/B/A/d | c/A/B/A/f | %18
 e/A/B/A/d | c/A/e/B/e/c/ | f/e/d/c/B/A/ | e3- | e3- | e3- | e3 | e/f/d/c/d- | d/e/c/B/c- | %27
 c/B/d/c/B/A/ | ^g/f/ ec- | c/B/ B>A | A3 :: e/c/A/e/f/g/ | a/d/ c>g | f/B/ ^A>e | d/f/e/d/c/B/ | %35
 f3- | f3- | f3- | f3- | f/d/c/B/(g | ^g/)d/c/B/(a | ^a/)f/e/f/(b | b/)a/g/f/e/b/ | %43
 ^a/^g/a/f/a/e/ | =a/g/f/e/^d/a/ | ^g/f/g/e/g/d/ | =g/f/e/d/c/g/ | f/e/f/d/f/c/ | f/e/d/c/B/f/ | %49
 ^e/c/^d/c/a | ^g/c/^d/c/f | ^e/c/^d/c/a | ^g/c/^d/c/f | ^e/^d/ c(f | f/)^g/ g>f | f a2- | %56
 a/^g/a/f/=g/e/ | f/^d/ eg- | g/f/g/e/f/a/ | b/a/g/f/e/d/ | dc z | a/>f/b/>f/e/>d/ | %62
 d/>c/a/>e/d/>c/ | c/>B/g/>d/c/>B/ | B/>A/f/>c/B/>A/ | A/>G/e/>B/A/>G/ | G/F/A/G/B/A/ | %67
 c/B/d/c/e/d/ | cB/A/d- | d/e/ e>d | d/A/B/A/c/G/ | d/A/B/A/e/g/ | f/a/g/f/e/d/ | a3- | a3- | a3- | %76
 a3 | a/b/g/f/g- | g/a/f/e/f | b e2 | d3 :| %81
V:2
 !2!D,2 !0!E, | !2!F,2 F, | !3!G, !2!F,2 | !0!E,!2!D, z | !2!F,!0!E,!2!D, | !0!A,!2!A,, z | %6
 !2!F, !3!G,2 | !3!G,!2!F, z | !2!F,!0!E, z | !0!E,!2!D, z | !2!D,!1!C, z | !2!D,!0!E,!2!F, | %12
 !3!G,2 !4!^G, | !0!A,!3!G,!2!F, | !3!G,!0!A,!2!A,, | !2!D,2 !0!D | !4!C2 !2!B, | !0!A,2 !0!D | %18
 !4!C2 !2!B, | !0!A,!2!B,!4!C | !2!D,!0!E,!2!F, | z/ !0!E,/!2!F,/!0!E,/!4!C | %22
 !2!B,/!0!E,/!2!F,/!0!E,/!0!A, | !4!^G,/!0!E,/!2!F,/!0!E,/!4!C | !2!B,/!0!E,/!2!F,/!0!E,/!0!A, | %25
 !2!F,2 !2!B, | !4!^G,2 !0!A, | !0!E,2 !2!F, | !0!E,!4!^G,A, | !2!D,!0!E,!2!E,, | !2!A,,3 :: %31
 !0!A,2 !3!G, | !2!F, !0!E,2 | !2!D, !1!C,2 | !4!B,,!0!E,!3!G, | z/ !2!F,/!4!^G,/!2!F,/!0!D | %36
 !4!C/!2!F,/!4!^G,/!2!F,/!2!B, | !1!^A,/!2!F,/!1!^G,/!2!F,/!0!D | !4!C/!2!F,/!1!^G,/!2!F,/!2!B, | %39
 !2!D,2 !4!B,, | !0!E,2 !1!C, | !2!F,2 !2!D, | !3!G,3 | !2!F,2 z | z !2!B,!4!B,, | !0!E,2 z | %46
 z !0!A,!2!A,, | !2!D,2 z | z !2!D,!0!D | !4!C3- | C3- | C3- | C3- | !4!C2 !0!A, | !2!B,!4!C!1!C, | %55
 !4!F,,!2!F,!0!E, | !3!^D,2 !0!E, | !0!A,!3!G,!0!E, | !1!C,2 !2!D, | !3!G, !0!G,,2 | %60
 !2!A,,!0!A,!3!G, | !2!F, !3!G,2 | !3!G,!2!F, z | !2!F,!0!E, z | !0!E,!2!D, z | !2!D,!1!C, z | %66
 !2!D,!0!E,!2!F, | !3!G,2 !4!^G, | !0!A,!3!=G,!2!F, | !3!G,!0!A,!2!A,, | !2!D,2 !0!E, | %71
 !2!F,2 !0!C, | !2!D,!0!E,!3!G, | z/ !0!A,/!2!B,/!0!A,/!4!F | !2!E/!0!A,/!2!B,/!0!A,/!0!D | %75
 !4!C/!0!A,/!2!B,/!0!A,/!4!F | !2!E/!0!A,/!2!B,/!0!A,/!0!D | !2!B,2 !2!E | !4!C2 !0!D | %79
 !3!G,!0!A,!2!A,, | !2!D,3 :| %81

